public/flags/CA.svg

<svg fill="none" height="53" viewBox="0 0 61 53" width="61" xmlns="http://www.w3.org/2000/svg" xmlns:xlink="http://www.w3.org/1999/xlink"><mask id="a" height="43" maskUnits="userSpaceOnUse" width="59" x="1" y="3"><rect fill="#fff" height="41.4393" rx="3.7125" stroke="#fff" stroke-width="1.06071" width="57.9393" x="1.53036" y="3.53036"/></mask><rect fill="#fff" height="41.4393" rx="3.7125" stroke="#f5f5f5" stroke-width="1.06071" width="57.9393" x="1.53036" y="3.53036"/><g fill="#ff3131" mask="url(#a)"><path d="m43.1431 3h16.8571v42.5h-16.8571z"/><g clip-rule="evenodd" fill-rule="evenodd"><path d="m1 45.5h16.8571v-42.5h-16.8571z"/><path d="m34.9616 22.5838c-.4933.4975-1.3321.0517-1.1958-.6355l.9483-4.7816-2.8095 1.4166-1.4048-4.25-1.4047 4.25-2.8095-1.4166.9482 4.7816c.1363.6872-.7024 1.133-1.1957.6355l-.6552-.6607c-.2766-.279-.7276-.279-1.0042 0l-.9027.9102-2.8095-1.4166 1.4048 2.8333-.9111.9188c-.2733.2756-.2733.7201 0 .9958l3.7206 3.7521h4.2143l.7024 4.25h1.4047l.7024-4.25h4.2143l3.7205-3.7521c.2734-.2757.2734-.7202 0-.9958l-.911-.9188 1.4048-2.8333-2.8096 1.4166-.9026-.9102c-.2766-.279-.7276-.279-1.0042 0z"/></g></g></svg>

<svg width="61" height="53" viewBox="0 0 61 53" fill="none" xmlns="http://www.w3.org/2000/svg">
<rect x="1.53036" y="3.53036" width="57.9393" height="41.4393" rx="3.7125" fill="white" stroke="#F5F5F5" stroke-width="1.06071"/>
<mask id="mask0" mask-type="alpha" maskUnits="userSpaceOnUse" x="1" y="3" width="59" height="43">
<rect x="1.53036" y="3.53036" width="57.9393" height="41.4393" rx="3.7125" fill="white" stroke="white" stroke-width="1.06071"/>
</mask>
<g mask="url(#mask0)">
<rect x="43.1431" y="3" width="16.8571" height="42.5" fill="#FF3131"/>
<path fill-rule="evenodd" clip-rule="evenodd" d="M1 45.5H17.8571V3H1V45.5Z" fill="#FF3131"/>
<path fill-rule="evenodd" clip-rule="evenodd" d="M34.9616 22.5838C34.4683 23.0813 33.6295 22.6355 33.7658 21.9483L34.7141 17.1667L31.9046 18.5833L30.4998 14.3333L29.0951 18.5833L26.2856 17.1667L27.2338 21.9483C27.3701 22.6355 26.5314 23.0813 26.0381 22.5838L25.3829 21.9231C25.1063 21.6441 24.6553 21.6441 24.3787 21.9231L23.476 22.8333L20.6665 21.4167L22.0713 24.25L21.1602 25.1688C20.8869 25.4444 20.8869 25.8889 21.1602 26.1646L24.8808 29.9167H29.0951L29.7975 34.1667H31.2022L31.9046 29.9167H36.1189L39.8394 26.1646C40.1128 25.8889 40.1128 25.4444 39.8394 25.1688L38.9284 24.25L40.3332 21.4167L37.5236 22.8333L36.621 21.9231C36.3444 21.6441 35.8934 21.6441 35.6168 21.9231L34.9616 22.5838Z" fill="#FF3131"/>
</g>
</svg>
